X: 1
T:Irish Jigg,An. JMT060
M:6/8
L:1/8
S:J.Moore,Tyneside,1841.(44a)
R:Jig
O:England
A:Kent
Z:C.G.P
K:C
A2Bc2d|egec3|B2dg2e|dBGG2B|A2Bc2d|egec3|B2dg2e|dBGA3:|!
|:a3efg|a2ec3|B2dg2e|dBGG2B|a3efg|a2ec3|B2dg2e|dBGA2e|!
a3efg|a2ec2e|c2eg2e|dBGG2B|A2Bc2d|egec3|Bd2g2e|dBGA3:|]
